icons/tokens/0xdB25f211AB05b1c97D595516F45794528a807ad8/logo.svg

<svg width="32" height="32" viewBox="0 0 32 32" fill="none" xmlns="http://www.w3.org/2000/svg">
<path fill-rule="evenodd" clip-rule="evenodd" d="M32 16C32 7.17152 24.8285 0 16 0C7.17152 0 0 7.17152 0 16C0 24.8285 7.17152 32 16 32C24.8285 32 32 24.8285 32 16Z" fill="url(#paint0_radial)"/>
<path fill-rule="evenodd" clip-rule="evenodd" d="M19.5216 0.392319C21.6464 0.871679 23.6509 1.78016 25.4121 3.06144C22.4614 3.43616 20.6365 4.05568 18.951 4.95648C16.9769 6.01152 15.1942 7.4528 14.0947 9.41408C14.0016 9.58016 13.9133 9.75008 13.8301 9.9232H28.5046L26.8569 13.6819H12.791C12.6982 14.5174 12.6829 15.3645 12.7398 16.1933C12.7808 16.7894 12.8592 17.3757 12.9747 17.9478H24.9869L23.3392 21.7066H14.4214C14.5795 21.9645 14.7481 22.2144 14.9277 22.4554C16.2166 24.1866 18.0569 25.455 20.1581 26.281C21.9286 26.977 23.8845 27.3584 27.0061 27.6134C25.6025 28.9434 23.9696 30.008 22.1862 30.7555C18.376 30.2026 15.9859 29.191 14.0294 27.7904C11.8573 26.2346 10.2195 24.1984 9.24254 21.7066H3.81854L5.46622 17.9478H8.30462C8.12414 16.5405 8.1059 15.0893 8.24286 13.6819H3.81854L5.46622 9.9232H9.03102C9.70142 7.9504 10.7881 6.14752 12.4326 4.50304C14.0211 2.91488 16.1299 1.47424 19.5216 0.392319Z" fill="white"/>
<defs>
<radialGradient id="paint0_radial" cx="0" cy="0" r="1" gradientUnits="userSpaceOnUse" gradientTransform="translate(32) rotate(135) scale(45.2548 72.6148)">
<stop offset="0.179521" stop-color="#B33BEC"/>
<stop offset="0.5" stop-color="#3861EC"/>
<stop offset="0.883331" stop-color="#15BCFF"/>
</radialGradient>
</defs>
</svg>

<svg fill="none" viewBox="0 0 32 32"><path fill="url(#paint0_radial)" fill-rule="evenodd" d="M32 16c0-8.828-7.172-16-16-16S0 7.172 0 16s7.172 16 16 16 16-7.172 16-16z" clip-rule="evenodd"/><path fill="#fff" fill-rule="evenodd" d="M19.522.392a16 16 0 015.89 2.67c-2.95.374-4.775.994-6.461 1.894-1.974 1.056-3.757 2.497-4.856 4.458a9.124 9.124 0 00-.265.51h14.675l-1.648 3.758H12.79a14.093 14.093 0 00.184 4.266h12.012l-1.648 3.759H14.42c.159.258.327.507.507.748 1.289 1.732 3.129 3 5.23 3.826 1.77.696 3.726 1.077 6.848 1.332a15.999 15.999 0 01-4.82 3.143c-3.81-.553-6.2-1.565-8.157-2.966-2.172-1.555-3.81-3.592-4.786-6.083H3.819l1.647-3.76h2.839a19.174 19.174 0 01-.062-4.265H3.819l1.647-3.759h3.565c.67-1.973 1.757-3.775 3.402-5.42 1.588-1.588 3.697-3.029 7.089-4.11z" clip-rule="evenodd"/><defs><radialGradient id="paint0_radial" cx="0" cy="0" r="1" gradientTransform="matrix(-31.99998 31.99998 -51.34642 -51.34642 32 0)" gradientUnits="userSpaceOnUse"><stop offset=".18" stop-color="#B33BEC"/><stop offset=".5" stop-color="#3861EC"/><stop offset=".883" stop-color="#15BCFF"/></radialGradient></defs></svg>
